SharedCollection/src/main/webapp/images/templateimg/imgFont/youtube.svg

<?xml version="1.0" encoding="UTF-8"?>
<!-- Generated by Pixelmator Pro 3.0.1 -->
<svg width="16" height="16" viewBox="0 0 16 16" xmlns="http://www.w3.org/2000/svg" xmlns:xlink="http://www.w3.org/1999/xlink">
    <path id="Percorso" fill="#ffffff" stroke="none" d="M 8.051 1.999 L 8.14 1.999 C 8.962 2.002 13.127 2.032 14.25 2.334 C 14.940889 2.521568 15.47987 3.062452 15.665 3.754 C 15.766 4.134 15.837 4.637 15.885 5.156 L 15.895 5.26 L 15.917 5.52 L 15.925 5.624001 C 15.99 6.538 15.998 7.394 15.999 7.580999 L 15.999 7.656 C 15.998 7.85 15.989 8.764 15.917 9.716 L 15.909 9.821 L 15.9 9.925 C 15.85 10.497 15.776 11.065 15.665 11.483 C 15.480422 12.174865 14.94121 12.715982 14.25 12.903 C 13.09 13.215 8.681 13.237 8.07 13.238 L 7.928 13.238 C 7.619 13.238 6.341 13.232 5.001 13.186 L 4.831 13.18 L 4.744 13.176 L 4.573 13.169 L 4.402 13.162 C 3.292 13.113 2.235 13.034 1.748 12.902 C 1.057044 12.715161 0.517887 12.17448 0.333 11.483 C 0.222 11.066 0.148 10.497 0.098 9.925 L 0.09 9.82 L 0.082 9.716 C 0.032648 9.038399 0.0053 8.359375 0 7.68 L 0 7.557 C 0.002 7.342 0.01 6.599 0.064 5.778999 L 0.071 5.676001 L 0.074 5.624001 L 0.082 5.52 L 0.104 5.26 L 0.114 5.156 C 0.162 4.637 0.233 4.132999 0.334 3.754 C 0.518578 3.062135 1.05779 2.521017 1.749 2.334 C 2.236 2.204 3.293 2.124001 4.403 2.073999 L 4.573 2.066999 L 4.745 2.061 L 4.831 2.058001 L 5.002 2.051001 C 5.953708 2.020374 6.905806 2.003373 7.858 2 L 8.051 2 Z M 6.4 5.209 L 6.4 10.027 L 10.557 7.618999 L 6.4 5.209 Z"/>
</svg>

<svg xmlns="http://www.w3.org/2000/svg" width="16" height="16" fill="currentColor" class="bi bi-youtube" viewBox="0 0 16 16">
  <path d="M8.051 1.999h.089c.822.003 4.987.033 6.11.335a2.01 2.01 0 0 1 1.415 1.42c.101.38.172.883.22 1.402l.01.104.022.26.008.104c.065.914.073 1.77.074 1.957v.075c-.001.194-.01 1.108-.082 2.06l-.008.105-.009.104c-.05.572-.124 1.14-.235 1.558a2.007 2.007 0 0 1-1.415 1.42c-1.16.312-5.569.334-6.18.335h-.142c-.309 0-1.587-.006-2.927-.052l-.17-.006-.087-.004-.171-.007-.171-.007c-1.11-.049-2.167-.128-2.654-.26a2.007 2.007 0 0 1-1.415-1.419c-.111-.417-.185-.986-.235-1.558L.09 9.82l-.008-.104A31.4 31.4 0 0 1 0 7.68v-.123c.002-.215.01-.958.064-1.778l.007-.103.003-.052.008-.104.022-.26.01-.104c.048-.519.119-1.023.22-1.402a2.007 2.007 0 0 1 1.415-1.42c.487-.13 1.544-.21 2.654-.26l.17-.007.172-.006.086-.003.171-.007A99.788 99.788 0 0 1 7.858 2h.193zM6.4 5.209v4.818l4.157-2.408L6.4 5.209z"/>
</svg>
